X: 32
T: The ROYAL OAK
%R: hornpipe, reel
B: Jean White "100 Popular Hornpipes, Reels, Jigs and Country Dances", Boston 1880 p.14
F: http://www.loc.gov/resource/sm1880.09124.0#seq-1
Z: 2014 John Chambers <jc:trillian.mit.edu>
M: C|
L: 1/8
K: Bb
% - - - - - - - - - - - - - - - - - - - - - - - - - - - - -
fe |\
d2B2 B2 (3dcA | B2F2 FABA |\
GFED C2G2 | D2 (3B,DF B2fe |
d2B2 B2bf | g=ec2 e2cB |\
(3AcB (3AGF (3GBA (3GF=E | F2 (3FAc f2 :|
|: f>_e |\
dBAB FBAB | GEDE CEDE |\
cded cBAB | AF=EF cF=EF |
fBAB gBAB | gBaB bBAB |\
Ggec dBcA | B2d2 B2 :|
% - - - - - - - - - - - - - - - - - - - - - - - - - - - - -

%%sep 1 1 500
%%sep 1 1 500
